main/svg/borderRoundDots.svg

<svg xmlns="http://www.w3.org/2000/svg" width="32" height="32"><path d="M16 30a2 2 0 0 0-2 2h4a2 2 0 0 0-2-2ZM0 30v2h2a2 2 0 0 0-2-2Zm32 0v2h-2c0-1.105.899-2 2-2ZM16 2a2 2 0 0 1-2-2h4c0 1.105-.894 2-2 2ZM0 2V0h2a2 2 0 0 1-2 2Zm32 0V0h-2c0 1.105.899 2 2 2Zm-2 14c0-1.105.898-2 2-2v4c-1.105 0-2-.894-2-2ZM2 16a2 2 0 0 0-2-2v4c1.105 0 2-.894 2-2Zm0 0" style="stroke:none;fill-rule:nonzero;fill:#000;fill-opacity:1"/></svg>

<svg xmlns="http://www.w3.org/2000/svg" width="32" height="32"><path d="M16 30a2 2 0 0 0-2 2h4a2 2 0 0 0-2-2Zm-16-0V32h2A2 2 0 0 0 0 30Zm32 0V32h-2c0-1.105.899-2 2-2ZM16 2A2 2 0 0 1 14 0h4c0 1.105-.894 2-2 2Zm-16 0V0h2A2 2 0 0 1 0 2Zm32 0V0h-2c0 1.105.899 2 2 2ZM30 16c0-1.105.898-2 2-2v4c-1.105 0-2-.894-2-2ZM2 16A2 2 0 0 0 0 14v4c1.105 0 2-.894 2-2Zm0 0" style="stroke:none;fill-rule:nonzero;fill:#000;fill-opacity:1"/></svg>
